X:1
T:Lichtmann 1
C:M. Praetorious
M:2/4
L:1/8
Q:"Allegro" 1/4=138
K:C
!mf!C"_spiritoso"D EF|G2 E2|FG A2|G2 DE|F2 GF|EF G2|
F2 E2|D2 C2|CD EF|(GE) FG|(AF) GA|G2 DE|
F2 GF|E2 FE|(DC) D2|C4||c2 c2|B2 AB|c2 B2|
(AB) G2|AB cd|B2 cB|(AG) A2|G4|G2 c2|c2 BA|
B2 c2|G2DE|(FD) GF|(EC) FE|(DC) D2|C4|]

